!!!!SEGMENT: pl-gd--ee-1638--003-012_marenzio-luca--madrigali-a-quatro-voci-chi-vuol-vdir-i-miei-sospiri.krn
!!!cenid: 15xx:986
!!!COM: Marenzio, Luca
!!!COM-rismID: pe30003955
!!!CDT: ~1553-1599/08/22
!!!CNT: Italian
!!!GTL: Madrigali a quatro voci
!!!OTL: Chi vuol vdir i miei sospiri
!!!OMV: 012
!!!PDT: 1587
!!!AGN:
!!!SMS-siglum: PL-GD
!!!SMS-shelfmark: Ee 1638
!!!SMS-shelfwork: 003-012 G
!!!SMS-variant:
!!!SMS-altvar:
!!!NIFC-rismSourceID: 1001202747
!!!NIFC-rismChildID: 990039322
!!!NIFC-islandoraID: pl-gd:57883
!!!URL-pdf-islandora: https://repozytorium.nifc.pl/islandora/object/pl-gd%3A57883/datastream/PDF/view
!!!URL-scan: https://polish.musicsources.pl/pl/lokalizacje/galeria/klocki-introligatorskie/655 @EN{Scan on Polish Music Sources Website} @PL{Skany w portalu Dziedzictwo Muzyki Polskiej w otwartym dostępie}
!!!ONB-nifc: UWAGA: zbiór na stronach: Canto: s. 637-653, Alto: s. do 486-501, Tenore: s. do 334-349, Bassus: s. do 182-197. Uwaga: utwory podzielone wg tytułów w spisach treści dostępnych na końcu każdej księgi głosowej.
!!!AIN: 1 alto 1 bass 1 soprn 1 tenor
!!!key:
**kern	**text	**kern	**text	**kern	**text	**kern	**text
*part4	*part4	*part3	*part3	*part2	*part2	*part1	*part1
*staff4	*staff4	*staff3	*staff3	*staff2	*staff2	*staff1	*staff1
*I"BASSO	*	*I"TENORE	*	*I"ALTO	*	*I"CANTO	*
*I'B	*	*I'T	*	*I'A	*	*I'S	*
*ICvox	*	*ICvox	*	*ICvox	*	*ICvox	*
*Ibass	*	*Itenor	*	*Ialto	*	*Isoprn	*
*clefF3	*	*clefC3	*	*clefC2	*	*clefG2	*
*k[]	*	*k[]	*	*k[]	*	*k[]	*
*d:	*	*d:	*	*d:	*	*d:	*
*M2/1	*	*M2/1	*	*M2/1	*	*M2/1	*
*met(C|)	*	*met(C|)	*	*met(C|)	*	*met(C|)	*
=1-	=1-	=1-	=1-	=1-	=1-	=1-	=1-
1r	.	1r	.	1r	.	0a	CHi
0D	CHi	0f	CHi	0a	CHi	.	.
=2-	=2-	=2-	=2-	=2-	=2-	=2-	=2-
.	.	.	.	.	.	1.dd	vuol
1.A	vuol	1e	vuol	1a	vuol	.	.
.	.	.	.	.	.	2cc#X\	v-
=3-	=3-	=3-	=3-	=3-	=3-	=3-	=3-
.	.	1e	v	1a	v-	1cc#	-dir
2G\	v-	.	.	.	.	.	.
1F#X	-dir	1d	dir	1a	-dir	2dd\	i
.	.	.	.	.	.	1dd\	miei
=4-	=4-	=4-	=4-	=4-	=4-	=4-	=4-
2G\	i	1.d	i	1b	i	.	.
1G	miei	.	.	.	.	2b/	ſo-
.	.	.	.	1b	miei	1.gg	-ſpi-
2E/	ſo-	1e\	miei	.	.	.	.
=5-	=5-	=5-	=5-	=5-	=5-	=5-	=5-
1.A	-ſpi-	.	.	2cc\	ſo-	.	.
.	.	2d\	ſo	1a	-ſpi-	2ff\	ri in
.	.	2c/	ſpi	.	.	2ee\	ri-
2D/	ri in	2f\	ri in	2a\	ri in	2dd\	-me
=6-	=6-	=6-	=6-	=6-	=6-	=6-	=6-
2.d\	ri-	2.f\	ri-	4b-X\	ri-	2r	.
.	.	.	.	4a\	.	.	.
.	.	.	.	2.a\	.	2dd\	in
4c\	.	4e\	.	.	.	.	.
1B-X	.	1d	.	.	.	1.dd	ri-
.	.	.	.	8g\	.	.	.
.	.	.	.	8f\	.	.	.
.	.	.	.	2g\	.	.	.
=7-	=7-	=7-	=7-	=7-	=7-	=7-	=7-
0A	-me	0e	-me	0a	-me	.	.
.	.	.	.	.	.	4cc#X\	.
.	.	.	.	.	.	4b\	.
!	!	!	!	!	!	!LO:SIC:v:t=custos dd	!
.	.	.	.	.	.	1cc#X	-me
!	!	!	!	!	!	!LO:LB:g=original	!
=8-	=8-	=8-	=8-	=8-	=8-	=8-	=8-
2.d\	Don-	2r	.	2.a\	Don-	2r	.
.	.	2.f\	Don-	.	.	2.dd\	Don-
!LO:SIC:v:t=custos d	!	!	!	!LO:SIC:v:t=custos a	!	!	!
4d\	-ne	.	.	4a\	-ne	.	.
!LO:LB:g=original	!	!	!	!LO:LB:g=original	!	!	!
1d	mie	.	.	2a\	mie	.	.
.	.	4f\	-ne	.	.	4dd\	-ne
!	!	!LO:SIC:v:t=custos g	!	!	!	!	!
.	.	2f\	mie	1f\	ca-	2a/	mie
!	!	!LO:LB:g=original	!	!	!	!	!
=9-	=9-	=9-	=9-	=9-	=9-	=9-	=9-
0c	ca-	0g	ca-	.	.	0ccny	ca-
.	.	.	.	4e/	.	.	.
.	.	.	.	4d/	.	.	.
.	.	.	.	1e	.	.	.
=10-	=10-	=10-	=10-	=10-	=10-	=10-	=10-
1Fny	re e	1a	-re	1f	-re	1cc	re e
1.B-X	l'an-	2r	.	2r	.	1.dd	l'an-
.	.	2d\	e	2f\	e	.	.
=11-	=11-	=11-	=11-	=11-	=11-	=11-	=11-
.	.	1.g	l'an-	1.b-X	l'an-	.	.
2A\	-go-	.	.	.	.	2cc\	-go-
1G	-ſcio-	.	.	.	.	1b-X	-ſcio-
.	.	2f\	-go-	2a\	-go-	.	.
=12-	=12-	=12-	=12-	=12-	=12-	=12-	=12-
1G	-ſo	2e\	-ſcio-	2g\	-ſcio-	1b-	-ſo
.	.	1d	-ſo	2f\	-ſo	.	.
2.A\	pian-	.	.	1.e	pian-	0.a	pian-
.	.	2.c/	pian-	.	.	.	.
4G\	.	.	.	.	.	.	.
=13-	=13-	=13-	=13-	=13-	=13-	=13-	=13-
0F	.	.	.	.	.	.	.
.	.	4B/	.	.	.	.	.
.	.	4A/	.	4d/	.	.	.
.	.	4G/	.	4c/	.	.	.
.	.	1A	.	1d	.	.	.
=14-	=14-	=14-	=14-	=14-	=14-	=14-	=14-
1E	-to	1B	-to	2e/	-to	1g#X	-to
.	.	.	.	2e/	E	.	.
1r	.	1r	.	1f	quan-	2r	.
.	.	.	.	.	.	2a/	E
=15-	=15-	=15-	=15-	=15-	=15-	=15-	=15-
0r	.	0r	.	2e/	-ti	1cc	quan-
.	.	.	.	2.a\	paſ-	.	.
.	.	.	.	.	.	2bny/	-ti
.	.	.	.	4g\	-ſi	.	.
.	.	.	.	4g\	tra	2.ee\	paſ-
!	!	!	!	!LO:SIC:v:t=custos g	!	!	!
.	.	.	.	4e/	la	.	.
!	!	!	!	!LO:LB:g=original	!	!	!
=16-	=16-	=16-	=16-	=16-	=16-	=16-	=16-
1r	.	1r	.	2g\	not-	.	.
.	.	.	.	.	.	4dd\	-ſi
.	.	.	.	2g\	t' e'l	4dd\	tra
.	.	.	.	.	.	4b/	la-
2r	.	2r	.	2f\	gior-	4dd\	-nott'e
.	.	.	.	.	.	4dd\	e'l
2A\	Spar-	2c/	Spar-	2e/	-no	2cc\	gior-
=17-	=17-	=17-	=17-	=17-	=17-	=17-	=17-
!	!	!	!	!	!	!LO:SIC:v:t=custos b	!
2G\	-ge(n)-	2d\	-ge(n)-	0r	.	1b	-no
2E/	-d'in	2e\	-d'in	.	.	.	.
!	!	!	!	!	!	!LO:LB:g=original	!
4F/	dar-	4A/	dar-	.	.	1r	.
4G\	-no	4B/	-no	.	.	.	.
4A\	uo	4c/	uo	.	.	.	.
!	!	!LO:SIC:v:t=custos e	!	!	!	!	!
4Bny\	per	4d\	per	.	.	.	.
!	!	!LO:LB:g=original	!	!	!	!	!
=18-	=18-	=18-	=18-	=18-	=18-	=18-	=18-
2c\	tan-	4e\	tan-	1r	.	0r	.
.	.	4f\	-ti	.	.	.	.
!LO:SIC:v:t=custos A	!	!	!	!	!	!	!
2B\	-ti	2.g\	cam-	.	.	.	.
!LO:LB:g=original	!	!	!	!	!	!	!
1A	cam-	.	.	2r	.	.	.
.	.	8f\	.	.	.	.	.
.	.	8e\	.	.	.	.	.
.	.	2f#X\	.	2c/	Spar-	.	.
=19-	=19-	=19-	=19-	=19-	=19-	=19-	=19-
1G	-pi	2g\	-pi	2d/	-ge(n)-	2r	.
.	.	4r	.	2e/	-d'in-	2b/	E
.	.	4g\	E	.	.	.	.
1r	.	1a	quan-	4A/	-dar-	1cc	quan-
.	.	.	.	4B/	-no	.	.
.	.	.	.	4c/	uo	.	.
.	.	.	.	4d/	per	.	.
=20-	=20-	=20-	=20-	=20-	=20-	=20-	=20-
0r	.	2g\	-ti	2.e/	tan-	2b/	-ti
.	.	2.c/	paſ-	.	.	2.ee\	paſ-
.	.	.	.	4f\	-ti	.	.
.	.	.	.	2g\	cam-	.	.
.	.	4B/	-ſi	.	.	4dd\	-ſi
.	.	4B/	tra	2g\	-pi	4dd\	tra
.	.	4e\	la	.	.	4b/	la
=21-	=21-	=21-	=21-	=21-	=21-	=21-	=21-
1r	.	4c/	not-	2r	.	4gg\	not-
.	.	4e\	-t'e'l	.	.	4gg\	t'e e'l
.	.	2d\	gior-	2f\	Spar-	2ff\	gior-
2r	.	1c	-no	2g\	-ge(n)-	1ee	-no
2A\	E	.	.	2a\	-d'in-	.	.
=22-	=22-	=22-	=22-	=22-	=22-	=22-	=22-
1B-X	quan-	2r	.	4d/	-dar-	00r	.
.	.	.	.	4e/	-no	.	.
.	.	2d\	E	4f\	uo	.	.
!	!	!	!	!LO:SIC:v:t=custos a	!	!	!
.	.	.	.	4g\	per	.	.
!	!	!LO:SIC:v:t=custos e	!	!LO:LB:g=original	!	!	!
2A\	-ti	1fny	quan-	2a\	tan-	.	.
2.d\	paſ-	.	.	2a\	-ti-	.	.
!	!	!LO:LB:g=original	!	!	!	!	!
=23-	=23-	=23-	=23-	=23-	=23-	=23-	=23-
.	.	2e\	-ti	1A	-cam-	.	.
4c\	-ſi	.	.	.	.	.	.
4c\	tra	2.a\	paſ-	.	.	.	.
4A\	la	.	.	.	.	.	.
2c\	not-	.	.	1e	-pi	.	.
.	.	4g\	-ſi	.	.	.	.
2c\	-t'e'l	4g\	tra	.	.	.	.
.	.	4e\	la	.	.	.	.
=24-	=24-	=24-	=24-	=24-	=24-	=24-	=24-
2B-X\	gior-	4g\	not-	2r	.	2r	.
.	.	4g\	-t'e'l	.	.	.	.
2A\	-no	4f\	gior-	2a\	Spar-	2cc\	Spar-
.	.	4e\	-no	.	.	.	.
1r	.	1r	.	2g\	-ge(n)-	2dd\	-gen-
.	.	.	.	2e/	-d'in-	2ee\	do in
=25-	=25-	=25-	=25-	=25-	=25-	=25-	=25-
0r	.	1r	.	4f\	-dar-	4a/	dar-
.	.	.	.	4g\	-no	4b/	-no
.	.	.	.	4a\	uo	4cc\	uo
!	!	!	!	!	!	!LO:SIC:v:t=custos ee	!
.	.	.	.	4bny\	per	4dd\	per
!	!	!	!	!	!	!LO:LB:g=original	!
.	.	2r	.	2cc\	tan-	4ee\	tan-
.	.	.	.	.	.	4ff\	-ti
.	.	2B/	Spar-	2b\	-ti	2.gg\	cam-
=26-	=26-	=26-	=26-	=26-	=26-	=26-	=26-
1r	.	2c/	-ge(n)-	1a	cam-	.	.
.	.	.	.	.	.	8ff\	.
.	.	.	.	.	.	8ee\	.
.	.	2d\	-d'in	.	.	2ff#X\	.
2r	.	2G/	dar-	4g\	-pi	1gg	-pi
.	.	.	.	4g\	per	.	.
2C/	Spar-	4c/	-no	2e/	tan-	.	.
*	*	*	*ij	*	*	*	*
.	.	4e\	Spar-	.	.	.	.
=27-	=27-	=27-	=27-	=27-	=27-	=27-	=27-
2D/	-ge(n)-	2d\	-gen-	4f\	-ti	0r	.
.	.	.	.	2a\	cam-	.	.
!LO:SIC:v:t=custos AA	!	!	!	!	!	!	!
2E/	-d'in	2B/	-d'in	.	.	.	.
.	.	.	.	4g#X\	.	.	.
!LO:LB:g=original	!	!	!	!	!	!	!
4AA/	dar-	4c/	dar-	1a	-pi	.	.
4BB/	-no	4d\	-no	.	.	.	.
*	*	*	*Xij	*	*	*	*
4C/	uo	4e\	uo	.	.	.	.
4D/	per	4d\	per	.	.	.	.
=28-	=28-	=28-	=28-	=28-	=28-	=28-	=28-
4E/	tan-	2c/	tan-	0r	.	1r	.
4F/	-ti	.	.	.	.	.	.
!	!	!LO:SIC:v:t=custos A	!	!	!	!	!
2.G\	cam-	2B/	-ti	.	.	.	.
!	!	!LO:LB:g=original	!	!	!	!	!
.	.	1A	cam-	.	.	2dd\	Leg-
8F/	.	.	.	.	.	.	.
8E/	.	.	.	.	.	.	.
2F#X/	.	.	.	.	.	2dd\	-ga
=29-	=29-	=29-	=29-	=29-	=29-	=29-	=29-
0G	-pi	0B	-pi	2d/	Leg-	1r	.
!	!	!	!	!LO:SIC:v:t=custos g	!	!	!
.	.	.	.	2d/	-ga	.	.
!	!	!	!	!LO:LB:g=original	!	!	!
.	.	.	.	2r	.	2dd\	Leg-
.	.	.	.	2gny\	Leg-	4dd\	-ga
.	.	.	.	.	.	4dd\	per
=30-	=30-	=30-	=30-	=30-	=30-	=30-	=30-
2C/	Leg-	2e\	Leg-	4g\	-ga	4gg\	que-
.	.	.	.	4g\	per	4gg\	-ſte
2C/	-ga	2e\	-ga	4cc\	que-	4.gg\	quer-
.	.	.	.	4cc\	-ſte	.	.
.	.	.	.	.	.	8ffny\	ce &
1r	.	1r	.	4.cc\	quer-	4.ee\	per
.	.	.	.	8b\	ce &	8dd\	li
.	.	.	.	4.a\	per	4.cc\	ſaſ-
!	!	!	!	!	!	!LO:SIC:v:t=custos a	!
.	.	.	.	8g\	li	8b/	.
!	!	!	!	!	!	!LO:LB:g=original	!
=31-	=31-	=31-	=31-	=31-	=31-	=31-	=31-
1r	.	2d\	Leg-	4f#X\	ſaſ-	4a/	.
.	.	.	.	2g\	.	4.b/	.
.	.	2d\	-ga	.	.	.	.
.	.	.	.	.	.	8a/	.
.	.	.	.	8f#\	.	4.b/	.
.	.	.	.	8e\	.	.	.
2G\	Leg-	1r	.	4d/	.	.	.
.	.	.	.	.	.	8gny/	.
.	.	.	.	4.e/	.	4.cc\	.
2G\	-ga	.	.	.	.	.	.
.	.	.	.	8d/	.	8b/	.
.	.	.	.	2g\	.	8b/	.
.	.	.	.	.	.	16a/	.
.	.	.	.	.	.	16g/	.
=32-	=32-	=32-	=32-	=32-	=32-	=32-	=32-
2r	.	2d\	Leg-	.	.	2a/	.
.	.	.	.	4f#X\	.	.	.
2G\	Leg-	4d\	-ga	2g\	-ſi	2b/	-ſi
.	.	4d\	per	.	.	.	.
4G\	-ga	4g\	que-	2r	.	2r	.
4G\	per	4g\	-ſte	.	.	.	.
4c\	que-	4.g\	quer-	4r	.	4r	.
!LO:SIC:v:t=custos c	!	!	!	!LO:SIC:v:t=custos g	!	!	!
4c\	-ſte	.	.	4e/	&	2g/	&
.	.	8f\	ce &	.	.	.	.
!LO:LB:g=original	!	!	!	!LO:LB:g=original	!	!	!
=33-	=33-	=33-	=33-	=33-	=33-	=33-	=33-
4.c\	quer-	4.e\	per	2g\	per	.	.
.	.	.	.	.	.	2cc\	per
8Bny\	ce &	8d\	li	.	.	.	.
4.A\	per	2.c/	ſaſ-	4fny\	li	.	.
.	.	.	.	2e/	ſaſ-	4cc\	li
8G\	li	.	.	.	.	.	.
1Fny	ſaſ-	.	.	.	.	1a	ſaſ-
.	.	4B/	.	8d/	.	.	.
.	.	.	.	8c/	.	.	.
.	.	2A/	.	2d/	.	.	.
=34-	=34-	=34-	=34-	=34-	=34-	=34-	=34-
2E/	-ſi	2B/	-ſi	2e/	-ſi	2g/	-ſi
2A\	Che	2r	.	4r	.	2cc\	Che
.	.	.	.	2f\	Che	.	.
2G\	n'è	1r	.	.	.	2b/	n'è
.	.	.	.	2e/	n'è	.	.
2F/	già	.	.	.	.	2a/	già
.	.	.	.	2d/	già	.	.
=35-	=35-	=35-	=35-	=35-	=35-	=35-	=35-
2E/	pie(n)	1r	.	.	.	2g/	pie(n)
.	.	.	.	2c/	pie(n)	.	.
!	!	!	!	!	!	!LO:SIC:v:t=custos e	!
2D/	ho-	.	.	.	.	2f/	ho-
.	.	.	.	4B/	ho-	.	.
!	!	!	!	!	!	!LO:LB:g=original	!
1C	-mai	2r	.	2c/	-mai	2e/	-mai
!	!	!LO:SIC:v:t=custos d	!	!	!	!	!
.	.	2e\	Che	4r	.	4re	.
*	*	*	*	*	*ij	*	*
.	.	.	.	2cc\	Che	4gg\	Che
!	!	!LO:LB:g=original	!	!	!	!	!
=36-	=36-	=36-	=36-	=36-	=36-	=36-	=36-
00r	.	2d\	n'è	.	.	2ff\	n'è
.	.	.	.	2b\	n'è	.	.
.	.	2c/	già	.	.	2ee\	già
.	.	.	.	2a\	già	.	.
.	.	2B/	pie(n)	.	.	2dd\	pien
.	.	.	.	2g\	pie(n)	.	.
.	.	2A/	ho-	.	.	2cc\	ho-
.	.	.	.	4f#X\	ho-	.	.
=37-	=37-	=37-	=37-	=37-	=37-	=37-	=37-
.	.	2G/	-mai	2g\	-mai	4b/	-mai
.	.	.	.	.	.	2dd\	cia-
*	*	*	*	*	*Xij	*	*
.	.	2g\	cia-	2G/	cia-	.	.
.	.	.	.	.	.	2b/	-ſcu-
.	.	2e\	-ſcu-	2g\	-ſcu-	.	.
.	.	.	.	.	.	2g/	-na
.	.	2c/	-na	2e/	-na	.	.
.	.	.	.	.	.	2cc\	ual-
=38-	=38-	=38-	=38-	=38-	=38-	=38-	=38-
!	!	!	!	!LO:SIC:v:t=custos e	!	!	!
1r	.	1G	ual-	1d	ual-	.	.
.	.	.	.	.	.	8b/	.
.	.	.	.	.	.	8a/	.
.	.	.	.	.	.	2b/	.
!	!	!	!	!LO:LB:g=original	!	!	!
2r	.	1c	-le	2e/	-le	2g/	-le
2A\	Che	.	.	4r	.	2cc\	Che
.	.	.	.	2fny\	Che	.	.
=39-	=39-	=39-	=39-	=39-	=39-	=39-	=39-
2G\	n'è	0r	.	.	.	2b/	n'è
.	.	.	.	2e/	n'è	.	.
2F/	già	.	.	.	.	2a/	già
.	.	.	.	2d/	già	.	.
2E/	pie(n)	.	.	.	.	2g/	pien
.	.	.	.	2c/	pie(n)	.	.
2D/	ho-	.	.	.	.	2f/	ho-
.	.	.	.	4B/	ho-	.	.
=40-	=40-	=40-	=40-	=40-	=40-	=40-	=40-
2C/	-mai	2r	.	2c/	-mai	2e/	-mai
2C/	Che	2e\	Che	4r	.	4r	.
!	!	!	!	!	!	!LO:SIC:v:t=custos ff	!
*	*	*	*	*	*ij	*	*
.	.	.	.	2cc\	Che	4gg\	Che
!LO:SIC:v:t=custos E	!	!	!	!	!	!LO:LB:g=original	!
0D	n'è	2d\	n'è	.	.	2ff\	n'è
.	.	.	.	2b\	n'è	.	.
.	.	2c/	già	.	.	2ee\	già
.	.	.	.	2a\	già	.	.
!LO:LB:g=original	!	!	!	!	!	!	!
=41-	=41-	=41-	=41-	=41-	=41-	=41-	=41-
!	!	!	!	!	!	!	!
.	.	2B/	pie(n)	.	.	2dd\	pien
.	.	.	.	2g\	pie(n)	.	.
.	.	2A/	ho-	.	.	2cc\	ho-
.	.	.	.	4f#X\	ho-	.	.
1E	già	2G/	-mai	2g\	-mai	4b/	-mai
.	.	.	.	.	.	4b/	cia-
*	*	*	*ij	*	*Xij	*	*
.	.	2.g\	Che	2e/	Che	1cc\	-ſcu-
=42-	=42-	=42-	=42-	=42-	=42-	=42-	=42-
2F/	pien	.	.	2a\	n'è	.	.
.	.	2f\	n'è	.	.	.	.
2G\	ho-	.	.	2g\	già	2b/	-na
.	.	2e\	già	.	.	.	.
1A	-mai	.	.	2fny\	pie(n)	1a	ual-
.	.	2d\	pie(n)	.	.	.	.
.	.	.	.	2e/	ho-	.	.
.	.	4c#X/	ho-	.	.	.	.
=43-	=43-	=43-	=43-	=43-	=43-	=43-	=43-
!	!	!LO:SIC:v:t=custos g	!	!	!	!	!
2r	.	1d	-mai	2f#X\	-mai	2a/	-le
2d\	cia-	.	.	2f#\	cia-	1dd	Che
!	!	!LO:LB:g=original	!	!	!	!	!
2B\	-ſcu-	1r	.	2g\	-ſcu-	.	.
!	!	!	!	!LO:SIC:v:t=custos d	!	!	!
2c\	-na	.	.	2e/	-na	1cc\	n'è
!	!	!	!	!LO:LB:g=original	!	!	!
*	*	*	*Xij	*	*	*	*
=44-	=44-	=44-	=44-	=44-	=44-	=44-	=44-
1G	ual-	2r	.	2.d/	ual-	.	.
.	.	2g\	cia-	.	.	2b/	già
.	.	.	.	8e\	.	.	.
.	.	.	.	8fny\	.	.	.
1C	-le	2e\	-ſcu-	4g\	.	2ee\	pien
.	.	.	.	4c/	.	.	.
.	.	2cny/	-na	1cc\	.	2ee\	ho-
=45-	=45-	=45-	=45-	=45-	=45-	=45-	=45-
1r	.	1G	ual-	.	.	1dd	-mai
.	.	.	.	2b\	-le	.	.
2r	.	4c/	-le	2r	.	2ee\	cia-
.	.	2e\	cia-	.	.	.	.
2A\	cia-	.	.	2e/	cia-	2cc\	-ſcu-
.	.	2c/	-ſcu-	.	.	.	.
=46-	=46-	=46-	=46-	=46-	=46-	=46-	=46-
2F/	-ſcu-	.	.	2f\	-ſcu-	1a	-na
.	.	2A/	-na	.	.	.	.
2D/	-na	.	.	2f\	-na	.	.
.	.	2d\	val-	.	.	.	.
1AA	val-	.	.	1e	val-	1a	val-
.	.	8c#X/	.	.	.	.	.
.	.	8B/	.	.	.	.	.
.	.	2c#X/	.	.	.	.	.
=47-	=47-	=47-	=47-	=47-	=47-	=47-	=47-
00D	-le.	00d	-le.	00f#X	-le.	00a	-le.
==	==	==	==	==	==	==	==
*-	*-	*-	*-	*-	*-	*-	*-
!!!system-decoration: [(s1,s2,s3,s4)]
!!!ENC: Mateusz Solarz
!!!END: 2022-06-28
!!!ENC: Natalia Wrzos
!!!END: 2022-07-12
!!!YEC: Copyright 2022 Narodowy Instytut Fryderyka Chopina (https://polishscores.org)
!!!YEM: License CC-BY-4.0 (https://creativecommons.org/licenses/by/4.0)
